X:1
T:Title
%%score { 1 | ( 2 3 ) }
L:1/8
M:6/4
K:Db
V:1 treble nm="Grand Piano"
V:2 bass 
V:3 bass 
V:1
 z6 z4[Q:1/4=108] FG | [DFA]2 [DGB]2 [DFA]2 [F,D]2 [A,DF]2 [A,DF]2 | [G,B,E]6 [D,B,]4 [G,B,D]2 | %3
 C2 C2[K:treble] C2 C2 D2 [CE]2 |[M:3/4] [DF]6 |[M:1/4] [DF][EG] | %6
[M:6/4] [FA]2 [GB]2 [FA]2 D2 F2 F2 | E6 B4 B2 | A2 A2 A2 c2 B2 A2 |[M:5/4] [Fd]2- [Fd]2- [Fd]6 | %10
[M:1/4] [Fd]2 |[M:6/4] e2 e2 e2 e2 d2 e2 | [Af]2 [Fd]2 [GB]2 [FA]4 [FA]2 | %13
 B2 B2 B2 [=GB]2 [Gc]2 [Gd]2 |[M:3/4] e6 |[M:1/4] FG |[M:6/4] [FA]2 [GB]2 [FA]2 D2 F2 F2 | %17
 E6 B4 B2 | A2 A2 A2 c2 B2 A2 |[M:5/4] [Fd]2- [Fd]2- [Fd]6 |] %20
V:2
 z6 z4 DE | D,2 D,2 D,2 D,2 D,2 D,2 | G,,6 G,,4 G,,2 | %3
 [A,,G,A,]2 [A,,G,A,]2 [A,,G,A,]2 [A,,G,A,]2 [A,,F,A,]2 [A,,A,]2 |[M:3/4] [D,A,]6 | %5
[M:1/4] [D,B,]2 |[M:6/4] [D,D]2 [D,D]2 [D,D]2 [D,F,]2 [D,A,D]2 [D,A,D]2 | %7
 [G,B,]6 [G,B,E]4[K:treble] [=G,D_F]2 | [A,DF]2 [A,DF]2 [A,DF]2 [A,G]2 [A,G]2 [A,G]2 | %9
[M:5/4][K:bass] [D,A,]2- [D,A,]2- [D,A,]6 |[M:1/4] [D,A,]2 | %11
[M:6/4][K:treble] [A,CG]2 [A,CG]2 [A,CG]2 [A,CG]2 [A,DF]2 [A,CA]2 | %12
 [D,D]2 [D,A,]2 [D,D]2 [D,D]4 [D,D]2 | [G,DG]2 [G,DG]2 [G,DG]2 [E,D]2 [E,C]2 [E,B,]2 | %14
[M:3/4] [A,CG]6 |[M:1/4] DE |[M:6/4] [D,D]2 [D,D]2 [D,D]2 [D,F,]2 [D,A,D]2 [D,A,D]2 | %17
 [G,B,]6 [G,B,E]4[K:treble] [=G,D_F]2 | [A,DF]2 [A,DF]2 [A,DF]2 [A,G]2 [A,G]2 [A,G]2 | %19
[M:5/4][K:bass] [D,A,]2- [D,A,]2- [D,A,]6 |] %20
V:3
 z6 z4 [D,A,]2 | x12 | x12 | x12 |[M:3/4] x6 |[M:1/4] x2 |[M:6/4] x12 | x10[K:treble] x2 | x12 | %9
[M:5/4][K:bass] x10 |[M:1/4] x2 |[M:6/4][K:treble] x12 | x12 | x12 |[M:3/4] x6 |[M:1/4] D,2 | %16
[M:6/4] x12 | x10[K:treble] x2 | x12 |[M:5/4][K:bass] x10 |] %20

